X: 75
M:2/4
L:1/16
K:D
uA2|AFDF AGFG|AGFE D2(EF)|GECE GECE|GFED C3A,|
|:vFG|A2d2d2 veud|cBA^G A2vAuB|c2c2c2 vduc|BAGF E2AG|


